X:1
T:Title
%%score { 1 | 2 }
L:1/8
M:3/4
K:Ab
V:1 treble nm="Grand Piano"
V:2 bass 
V:1
 z2 z2[Q:1/4=100] [A,C][B,D] | [CE]3 [CA] [EG][DF] | [DF]2 [CE]2 [EA]B | c3 B [EA][Ec] | %4
 c2 B2 C[B,D] | [CE]3 [CA] [EG][DF] | [DF]2 [CE]2 [EA]B | c3 B [EA][Ec] | c2 B2 cd | e3 A [GB]c | %10
 [Fd]4 [Fc][FB] | A3 E c>B |[M:2/4] [CA]4 |[M:1/4] e>e |[M:3/4] e4 c>c | c4 Ac | B3 G [EA]>[EB] | %17
 [Ec]4 e>e | e3 c [Ad][Ae] | [Af]4 [Fd][FB] | A3 E c>B |[M:2/4] [CA]4 |] %22
V:2
 z2 z2 [A,,E,][A,,E,] | [A,,A,]3 [A,,E,] [A,,E,][A,,A,] | [A,,A,]2 [A,,A,]2 [C,A,][E,G,E] | %3
 [A,E]3 [E,G,E] [C,A,][A,,A,] | [E,A,E]2 [E,G,E]2 [A,,E,A,][A,,E,] | %5
 [A,,A,]3 [A,,E,] [A,,E,][A,,A,] | [A,,A,]2 [A,,A,]2 [C,A,][E,G,E] | [A,E]3 [E,G,E] [C,A,][A,,A,] | %8
 [E,A,E]2 [E,G,E]2 [A,E][A,B,E] | [A,CE]3 [A,C] [E,B,][A,_G] | [D,A,]4 [D,A,][D,D] | %11
 [E,CE]3 [E,A,C] [E,G,E]>[E,G,D] |[M:2/4] [A,,A,]4 |[M:1/4][K:treble] [A,CA]>[A,CA] | %14
[M:3/4] [A,CA]4 [A,EA]>[A,EA] | [A,EA]4[K:bass] [A,CE][A,E] | [E,G,E]3 [E,B,E] [C,A,]>[B,,G,] | %17
 [A,,A,]4[K:treble] [A,CA]>[A,CA] | [A,CA]3 [A,EA][K:bass] [F,D][E,C] | [D,D]4 [D,A,][D,D] | %20
 [E,CE]3 [E,A,C] [E,A,E]>[E,G,D] |[M:2/4] [A,,A,]4 |] %22

